X: 43357
T: Wren's Nest, The
R: jig
M: 6/8
K: Edorian
|:GAB ded|c2A AB=c|BGE EFG|AFD FED|
GAB ded|c2A AB=c|BGE AFD|FED E3:|
|:EBe dBd|cBA B3|GAB dBd|cBA BAG|
EG/B/e dBd|cBA B3|GAB cAB|GED E3:|
BDE G2D|BDE3D|BDE GAB|A3 FED|
BDE GED|BDE3D|GAB cAB|GED E3|
Bde (g3|g)ed e3|BDE GAB|A3 FED|
Bde ged|Bde3d|GAB cAB|GED E3||

